X:717
%%etbk:tnset id:433,pos:2,rep:3x,ant:
%%etbk:wsite https://thesession.org/tunes/3346
%%etbk:pldat 2016-09-17T15:44,2016-09-16T17:12,2016-09-13T17:26,2016-09-04T11:19,2016-09-03T10:10,2016-08-21T11:44,2016-08-04T18:59,2016-07-31T16:51,2016-07-23T17:00,2016-07-22T15:56,2016-07-19T21:01,2016-06-12T15:04,2016-05-25T16:08,2016-05-24T16:21,2016-05-23T18:38,2016-03-20T10:12,2016-01-04T18:47,2015-12-31T14:39,2015-12-29T17:03,2015-12-28T17:13,2015-12-27T14:31,2015-12-23T16:53,2015-07-08T09:44,2015-06-01T17:14,2015-05-19T16:32,2015-05-10T11:10,2015-05-06T16:01
T: Paddy Fahey's
Z: Piano Box Version by Martin Fleischmann
H: Created 2015-04-29 /  Last Modified 2016-07-31
S: John Williams
R: reel
M: 4/4
L: 1/8
K: Gmaj
"G""G-Drone"!2!~B3 d "C"c2 dc|"G"!2!BGdB "D"!3!cAAc|"G"!2!BGdB "C"!3!c3 !1!d|"D"!2!(3efg eg !3!f!1!d!3!cA|
"G"!2!~B3 d "C"c2 dc|"G"!2!BGdB "D"cAA!4!g|!3!fdfa !4!gfd!3!=f|"C"!2!eceg "D"!3!fAd!3!f|
"G"!4!g2 !3!ga bgag|"D"!2!fdd!3!=f "C"ec~c2|"G"!3!g3 a bgag|"D"fAde ~!4!=f3 !1!d|
"G"!3!g3 a bgag|"D"fdd=f "C"ec!1!~c2|"G"!1!d3 =f "C"eceg|"D"fdfa gfdc|


